X: 1
T:Voice Of The Mr Ron, The
M:4/4
L:1/8
Q:170
C:Stephen P McNally
S:© 2002
K:AMix
|:f>g^g>a f>ed>e|B>cd>e c>BA>e|B>cd>e A>df>A|f>gf>d e2 e2|
f>g^g>a f>ed>e|B>cd>e c>BA>e|B>cd>e f>gf>e|f>=fe>c d2 d2:|
|:^g>a=g>a f>ae>a|d>ed>c B>cd>e|B>cd>e A>df>A|f>gf>d e2 e2|
^g>a=g>a f>ae>a|d>ed>c B>cd>e|B>cd>e f>gf>e|f>=fe>c d2 d2:|

% Output from ABC2Win  Version 2.1 i on 23/11/2004
